!!!OTL-incipit: WENNS KUMMT UM WEIHNACHTE
!!!ARE: Europa, Mitteleuropa, Deutschland, Kuhlaendchen
!!!SCT: Z0201
!!!YEM: Copyright 1995, estate of Helmut Schaffrath.
**kern	**text
*ICvox	*
*M3/8	*
*k[b-e-]	*
*B-:	*
!LO:TX:a:t=Erſte Strophe.	!
!LO:TX:a:t=Kuhländchen.	!
{8f	Wenn's
=1	=1
16b-L	kummt
16ddJ	.
8ff	um
8ff	Weih-
=2	=2
16ffL	-nach-
16ee-J	.
4ee-}	-te,
=3	=3
{8dd	ja,
8.dd	ja,
16dd	Weih-
=4	=4
16ddL	-nach-
16ccJ	.
8.cc}	-te,
{16ee-	ſo
=5	=5
16ddL	ſeyn
16ccJ	die
8b-/	Maſter
8a	.
=6	=6
4b-/}	ſtolʒ.
{8f	Sie
=7	=7
16b-L	ſprecha
16ddJ	.
8ff	ʒum
8ff	Ge-
=8	=8
16ffL	-ſel-
16ee-J	.
4ee-}	-le,
=9	=9
{8dd	ja,
8.dd	ja,
16dd	Ge-
=10	=10
16ddL	-ſel-
16ccJ	.
8.cc}	-le,
{16ee-	gih,
=11	=11
16ddL	hack
16ccJ	er
8b-/	mir
8a	das
=12	=12
4b-/}	Holʒ.
{8f	Gih,
=13	=13
16b-L	hack
16ddJ	er's
8ff	gruß
8dd	und
=14	=14
16ddL	kla-
16ccJ	.
8.cc}	-ne,
{16f	und
=15	=15
16b-L	bring
16ddJ	er
8ff	Waſſer
8dd	.
=16	=16
8ddL	rai,
8ccJ}	.
{8f	ſo
=17	=17
16b-	wird
16dd	er
8ff	die-
8ff	-ſen
=18	=18
16ffL	Win-
16ee-J	.
8.ee-}	-ter
{16ee-	a
=19	=19
16dd	gu-
32cc	-ter
32cc	Ge-
8b-/	-ſel-
8a	-le
=20	=20
4b-}	ſey.
==:|	==:|
!!!AGN: Schiffer -, Handwerker - Lied
!!!ONB: ESAC (Essen Associative Code) Database: ZUCCAL
!!!AMT: simple triple
!!!AIN: vox
!!!EED: Helmut Schaffrath
!!!EEV: 1.0
!!!GTL: III. Soldaten-, Jaeger-, Schiffer-, Fuhrmanns- und Handwerks-Lieder.
!!!URL-scan: https://www.digitale-sammlungen.de/de/view/bsb11160571?page=371
!!!ENC: Anna Maria Matuszewska
!!!EEV: 2025/01/28
*-	*-
